src/images/phone.svg

<svg width="175" height="136" viewBox="0 0 175 136" fill="none" xmlns="http://www.w3.org/2000/svg">
<circle cx="90" cy="68" r="68" fill="#4F57AA"/>
<path d="M161.534 22C158.46 22 156 19.5404 156 16.5342C156 13.4596 158.46 11 161.534 11C164.609 11 167.068 13.4596 167.068 16.5342C167 19.5404 164.54 22 161.534 22ZM161.534 12.3665C159.211 12.3665 157.366 14.2112 157.366 16.5342C157.366 18.8571 159.211 20.7019 161.534 20.7019C163.857 20.7019 165.702 18.8571 165.702 16.5342C165.634 14.2112 163.789 12.3665 161.534 12.3665Z" fill="#FB9F88"/>
<path d="M17.4 23.4C17.1 23.4 16.9 23.3 16.7 23.1L11.3 17.7C10.9 17.3 10.9 16.7 11.3 16.3C11.7 15.9 12.3 15.9 12.7 16.3L18.1 21.7C18.5 22.1 18.5 22.7 18.1 23.1C17.9 23.3 17.7 23.4 17.4 23.4Z" fill="#4F57AA"/>
<path d="M12 23.4C11.7 23.4 11.5 23.3 11.3 23.1C10.9 22.7 10.9 22.1 11.3 21.7L16.7 16.3C17.1 15.9 17.7 15.9 18.1 16.3C18.5 16.7 18.5 17.3 18.1 17.7L12.7 23.1C12.5 23.3 12.2 23.4 12 23.4Z" fill="#4F57AA"/>
<path d="M137.4 134.4C137.1 134.4 136.9 134.3 136.7 134.1L131.3 128.7C130.9 128.3 130.9 127.7 131.3 127.3C131.7 126.9 132.3 126.9 132.7 127.3L138.1 132.7C138.5 133.1 138.5 133.7 138.1 134.1C137.9 134.3 137.7 134.4 137.4 134.4Z" fill="#FB9F88"/>
<path d="M132 134.4C131.7 134.4 131.5 134.3 131.3 134.1C130.9 133.7 130.9 133.1 131.3 132.7L136.7 127.3C137.1 126.9 137.7 126.9 138.1 127.3C138.5 127.7 138.5 128.3 138.1 128.7L132.7 134.1C132.5 134.3 132.2 134.4 132 134.4Z" fill="#FB9F88"/>
<path d="M114 27.4922C114 25.0279 111.999 23 109.51 23H71.4896C69.0011 23 67 25.0023 67 27.4922V31.5994H114V27.4922Z" fill="#E6EFFF"/>
<path d="M114 31.5994H67V104.374H114V31.5994Z" fill="#573856"/>
<path d="M67 104.374V109.508C67 111.972 69.0011 114 71.4896 114H109.536C111.999 114 114.026 111.998 114.026 109.508V104.374H67Z" fill="#E6EFFF"/>
<path d="M90.5 113.23C89.0633 113.23 87.7293 112.46 87.0109 111.202C86.2926 109.944 86.2926 108.404 87.0109 107.172C87.7293 105.914 89.0633 105.144 90.5 105.144C91.9367 105.144 93.2707 105.914 93.9891 107.172C94.7074 108.43 94.7074 109.97 93.9891 111.202C93.2707 112.46 91.9367 113.23 90.5 113.23ZM90.5 105.811C89.2942 105.811 88.1654 106.453 87.5753 107.505C86.9853 108.558 86.9853 109.841 87.5753 110.894C88.1654 111.946 89.2942 112.588 90.5 112.588C91.7058 112.588 92.8346 111.946 93.4247 110.894C94.0147 109.841 94.0147 108.558 93.4247 107.505C92.8346 106.453 91.7058 105.811 90.5 105.811Z" fill="#1A2943"/>
<path d="M94.3483 27.826H86.6518C86.3696 27.826 86.1387 27.595 86.1387 27.3126C86.1387 27.0302 86.3696 26.7992 86.6518 26.7992H94.3483C94.6305 26.7992 94.8614 27.0302 94.8614 27.3126C94.8614 27.595 94.6305 27.826 94.3483 27.826Z" fill="#1A2943"/>
<path d="M97.5808 28.4164C98.19 28.4164 98.6839 27.9222 98.6839 27.3125C98.6839 26.7029 98.19 26.2087 97.5808 26.2087C96.9715 26.2087 96.4776 26.7029 96.4776 27.3125C96.4776 27.9222 96.9715 28.4164 97.5808 28.4164Z" fill="#1A2943"/>
<path d="M140.151 114.301C146.309 114.301 151.301 109.309 151.301 103.151C151.301 96.9923 146.309 92 140.151 92C133.992 92 129 96.9923 129 103.151C129 109.309 133.992 114.301 140.151 114.301Z" fill="#FB9F88"/>
<path d="M144.902 108.928H135.399C134.913 108.928 134.535 108.55 134.535 108.064V101.045C134.535 100.559 134.913 100.181 135.399 100.181H144.902C145.388 100.181 145.766 100.559 145.766 101.045V108.091C145.739 108.55 145.361 108.928 144.902 108.928ZM136.263 107.227H144.038V101.882H136.263V107.227Z" fill="white"/>
<path d="M143.903 101.882C143.417 101.882 143.039 101.504 143.039 101.018V98.4257C143.039 97.9937 142.688 97.6697 142.283 97.6697H137.991C137.559 97.6697 137.235 98.0207 137.235 98.4257V101.018C137.235 101.504 136.857 101.882 136.371 101.882C135.885 101.882 135.507 101.504 135.507 101.018V98.4257C135.507 97.0487 136.614 95.9418 137.991 95.9418H142.283C143.66 95.9418 144.767 97.0487 144.767 98.4257V101.018C144.767 101.504 144.389 101.882 143.903 101.882Z" fill="white"/>
<path d="M141.015 103.826C141.015 103.34 140.637 102.962 140.151 102.962C139.665 102.962 139.287 103.34 139.287 103.826C139.287 104.204 139.503 104.5 139.827 104.635L139.287 105.985H140.151H141.015L140.475 104.635C140.772 104.5 141.015 104.204 141.015 103.826Z" fill="white"/>
<path d="M87.1543 54.1618C86.7416 52.6064 85.1228 51.6859 83.5675 52.0986L33.1618 65.7475C31.6064 66.1601 30.6859 67.7789 31.0986 69.3343L31.5429 71.0166L87.5987 55.8441L87.1543 54.1618Z" fill="#FDCD5C"/>
<path d="M87.6106 55.8627L31.5697 71.0325L33.2783 77.3443L89.3192 62.1745L87.6106 55.8627Z" fill="#1A2943"/>
<path d="M33.2887 77.3649L38.8435 97.8382C39.2561 99.3936 40.8749 100.314 42.4303 99.9014L92.836 86.2525C94.3913 85.8399 95.3119 84.2211 94.8992 82.6657L89.3444 62.1924L33.2887 77.3649Z" fill="#FDCD5C"/>
<path d="M52.6511 89.5537L44.0174 91.9025C42.9699 92.1882 41.8907 91.5534 41.605 90.5059C41.3193 89.4584 41.9542 88.3792 43.0017 88.0936L51.6354 85.7447C52.6829 85.459 53.7621 86.0938 54.0477 87.1413C54.3017 88.1888 53.6986 89.2997 52.6511 89.5537Z" fill="#E6EFFF"/>
<path d="M80.322 84.1426C82.4373 83.57 83.6879 81.3911 83.1153 79.2758C82.5427 77.1606 80.3638 75.91 78.2485 76.4825C76.1332 77.0551 74.8826 79.234 75.4552 81.3493C76.0278 83.4646 78.2068 84.7152 80.322 84.1426Z" fill="#FF6B6B"/>
<path d="M86.0695 82.5923C88.1847 82.0197 89.4353 79.8408 88.8627 77.7255C88.2901 75.6103 86.1112 74.3597 83.9959 74.9322C81.8807 75.5048 80.6301 77.6838 81.2027 79.799C81.7753 81.9143 83.9542 83.1649 86.0695 82.5923Z" fill="#E6EFFF"/>
<path d="M128.942 39H104.36C103.615 39 103 39.6154 103 40.3603V41.2023V44.2791V54.2545C103 54.9994 103.615 55.6147 104.36 55.6147H128.942C129.687 55.6147 130.303 54.9994 130.303 54.2545V44.2791V41.2023V40.3603C130.335 39.6154 129.72 39 128.942 39Z" fill="#008AA9"/>
<path d="M122.821 52.1816C125.683 52.1816 128.003 49.8615 128.003 46.9996C128.003 44.1377 125.683 41.8176 122.821 41.8176C119.959 41.8176 117.639 44.1377 117.639 46.9996C117.639 49.8615 119.959 52.1816 122.821 52.1816Z" fill="white"/>
<path d="M123.534 47.2911C124.117 47.032 124.538 46.4167 124.538 45.7366C124.538 44.7973 123.76 44.02 122.821 44.02C121.882 44.02 121.105 44.7973 121.105 45.7366C121.105 46.4167 121.526 47.032 122.109 47.2911C120.91 47.615 120.003 48.7162 120.003 50.0117H125.639C125.639 48.6838 124.732 47.5826 123.534 47.2911Z" fill="#008AA9"/>
<path d="M110.449 43.3723H106.401C106.109 43.3723 105.882 43.1456 105.882 42.8541C105.882 42.5626 106.109 42.3359 106.401 42.3359H110.449C110.741 42.3359 110.967 42.5626 110.967 42.8541C110.967 43.1456 110.741 43.3723 110.449 43.3723Z" fill="white"/>
<path d="M114.692 43.3723H113.105C112.813 43.3723 112.587 43.1456 112.587 42.8541C112.587 42.5626 112.813 42.3359 113.105 42.3359H114.692C114.983 42.3359 115.21 42.5626 115.21 42.8541C115.21 43.1456 114.983 43.3723 114.692 43.3723Z" fill="white"/>
<path d="M110.643 44.2792H114.692C114.983 44.2792 115.21 44.5059 115.21 44.7974C115.21 45.0889 114.983 45.3156 114.692 45.3156H110.643C110.352 45.3156 110.125 45.0889 110.125 44.7974C110.158 44.5059 110.384 44.2792 110.643 44.2792Z" fill="white"/>
<path d="M106.401 44.2792H107.988C108.279 44.2792 108.506 44.5059 108.506 44.7974C108.506 45.0889 108.279 45.3156 107.988 45.3156H106.401C106.109 45.3156 105.882 45.0889 105.882 44.7974C105.882 44.5059 106.142 44.2792 106.401 44.2792Z" fill="white"/>
<path d="M110.643 50.4651H114.692C114.983 50.4651 115.21 50.6918 115.21 50.9833C115.21 51.2748 114.983 51.5015 114.692 51.5015H110.643C110.352 51.5015 110.125 51.2748 110.125 50.9833C110.158 50.6918 110.384 50.4651 110.643 50.4651Z" fill="white"/>
<path d="M106.401 50.4651H107.988C108.279 50.4651 108.506 50.6918 108.506 50.9833C108.506 51.2748 108.279 51.5015 107.988 51.5015H106.401C106.109 51.5015 105.882 51.2748 105.882 50.9833C105.882 50.6918 106.142 50.4651 106.401 50.4651Z" fill="white"/>
<path d="M46.5903 39.9097C52.8917 36.5462 55.2733 28.7111 51.9097 22.4097C48.5462 16.1083 40.7111 13.7267 34.4097 17.0903C28.1083 20.4538 25.7267 28.2889 29.0903 34.5903C32.4538 40.8917 40.2889 43.2733 46.5903 39.9097Z" fill="#FBA927"/>
<path d="M45.0867 37.0928C49.8324 34.5596 51.626 28.659 49.0928 23.9132C46.5597 19.1675 40.659 17.3739 35.9133 19.9071C31.1676 22.4402 29.374 28.3409 31.9071 33.0866C34.4403 37.8323 40.341 39.626 45.0867 37.0928Z" fill="#FDCD5C"/>
<path d="M40.4946 40.1842C36.3018 40.1842 32.2702 37.9265 30.1738 33.9917C27.1421 28.3152 29.303 21.2197 34.9794 18.1879C37.7209 16.7043 40.8817 16.414 43.8811 17.3171C46.8806 18.2202 49.3318 20.2521 50.7832 22.9936C52.2668 25.735 52.5571 28.8958 51.654 31.8953C50.7509 34.8947 48.7513 37.3459 45.9776 38.7973C44.2359 39.7326 42.3653 40.1842 40.4946 40.1842ZM30.7221 33.7014C33.5926 39.0876 40.3011 41.1195 45.6873 38.249C48.2997 36.8622 50.2026 34.54 51.0735 31.7017C51.9443 28.8635 51.654 25.8963 50.2349 23.2838C48.848 20.6714 46.5259 18.7685 43.6876 17.8977C40.8494 17.0268 37.8822 17.3171 35.2697 18.7362C29.8835 21.6067 27.8516 28.3152 30.7221 33.7014Z" fill="#FDCD5C"/>
<path d="M36.8823 23.4451L36.4308 22.6388L37.8499 21.8647L38.3015 22.7033C39.6883 22.284 40.8172 22.8968 41.6235 24.4127L41.817 24.7675L40.1721 25.6383L39.9141 25.1868C39.4948 24.3804 39.011 24.2514 38.4627 24.574C37.9144 24.8642 37.7532 25.348 38.1724 26.1221C39.398 28.412 42.8491 26.7026 44.5584 29.8634C45.3648 31.3792 45.2357 32.6693 44.1392 33.6047L44.5584 34.411L43.1393 35.185L42.6878 34.3465C41.3009 34.7658 40.1398 34.1207 39.3335 32.6371L38.9143 31.863L40.5591 30.9922L41.0107 31.863C41.4299 32.6693 41.946 32.7661 42.4943 32.4436C43.0426 32.1533 43.2361 31.6695 42.8168 30.8955C41.6557 28.6055 38.1724 30.3149 36.4953 27.1542C35.689 25.6705 35.7858 24.3804 36.8823 23.4451Z" fill="#FBA927"/>
<path d="M138.039 66.8638C141.093 69.4556 145.58 69.1702 148.063 66.2263C150.545 63.2824 150.082 58.7949 147.029 56.2031C143.975 53.6113 139.488 53.8967 137.005 56.8406C134.523 59.7845 134.986 64.272 138.039 66.8638Z" fill="#FBA927"/>
<path d="M139.149 65.5479C141.448 67.4998 144.828 67.2849 146.698 65.0678C148.567 62.8507 148.218 59.4711 145.919 57.5191C143.619 55.5672 140.24 55.7822 138.37 57.9992C136.501 60.2163 136.849 63.596 139.149 65.5479Z" fill="#FDCD5C"/>
<path d="M136.627 63.7913C135.743 61.5995 136.035 59.0552 137.582 57.1981C139.812 54.5151 143.853 54.2721 146.582 56.653C147.91 57.7991 148.723 59.3952 148.899 61.1379C149.074 62.8806 148.564 64.5551 147.484 65.8442C146.411 67.1501 144.875 67.9133 143.169 68.0215C141.462 68.1296 139.802 67.5585 138.484 66.3893C137.644 65.6598 137.021 64.7692 136.627 63.7913ZM137.844 57.4286C135.726 59.9711 136.113 63.8711 138.7 66.1315C139.951 67.2289 141.526 67.7744 143.144 67.6805C144.762 67.5867 146.201 66.8609 147.222 65.6137C148.25 64.3833 148.722 62.8012 148.564 61.1491C148.406 59.4969 147.634 58.0019 146.366 56.9108C143.78 54.6504 139.961 54.886 137.844 57.4286Z" fill="#FDCD5C"/>
<path d="M144.316 58.643L144.627 58.2486L145.32 58.8552L144.993 59.2557C145.501 59.9129 145.432 60.6304 144.838 61.3491L144.7 61.5199L143.909 60.8118L144.082 60.5882C144.4 60.211 144.362 59.9291 144.082 59.6993C143.819 59.4632 143.54 59.47 143.238 59.841C142.343 60.9308 143.942 62.4389 142.71 63.9524C142.116 64.6711 141.437 64.8493 140.731 64.4451L140.413 64.8223L139.719 64.2158L140.046 63.8152C139.539 63.158 139.617 62.4172 140.195 61.7046L140.496 61.3336L141.287 62.0417L140.943 62.4484C140.625 62.8256 140.687 63.1185 140.966 63.3484C141.23 63.5844 141.516 63.5947 141.817 63.2237C142.727 62.1683 141.12 60.643 142.359 59.1466C142.937 58.4341 143.609 58.2388 144.316 58.643Z" fill="#FBA927"/>
<path d="M7.5 77C3.33333 77 0 73.646 0 69.5466C0 65.354 3.33333 62 7.5 62C11.6667 62 15 65.354 15 69.5466C14.9074 73.646 11.5741 77 7.5 77ZM7.5 63.8634C4.35185 63.8634 1.85185 66.3789 1.85185 69.5466C1.85185 72.7143 4.35185 75.2298 7.5 75.2298C10.6481 75.2298 13.1481 72.7143 13.1481 69.5466C13.0556 66.3789 10.5556 63.8634 7.5 63.8634Z" fill="#FB9F88"/>
<path d="M171 78C168.778 78 167 76.2112 167 74.0248C167 71.7888 168.778 70 171 70C173.222 70 175 71.7888 175 74.0248C174.951 76.2112 173.173 78 171 78ZM171 70.9938C169.321 70.9938 167.988 72.3354 167.988 74.0248C167.988 75.7143 169.321 77.0559 171 77.0559C172.679 77.0559 174.012 75.7143 174.012 74.0248C173.963 72.3354 172.63 70.9938 171 70.9938Z" fill="#4F57AA"/>
</svg>

<svg width="175" height="136" fill="none" xmlns="http://www.w3.org/2000/svg"><circle cx="90" cy="68" r="68" fill="#4F57AA"/><path d="M161.534 22C158.46 22 156 19.54 156 16.534A5.511 5.511 0 01161.534 11a5.51 5.51 0 015.534 5.534C167 19.54 164.54 22 161.534 22zm0-9.633a4.141 4.141 0 00-4.168 4.167 4.141 4.141 0 004.168 4.168 4.141 4.141 0 004.168-4.168c-.068-2.323-1.913-4.167-4.168-4.167z" fill="#FB9F88"/><path d="M17.4 23.4c-.3 0-.5-.1-.7-.3l-5.4-5.4c-.4-.4-.4-1 0-1.4.4-.4 1-.4 1.4 0l5.4 5.4c.4.4.4 1 0 1.4-.2.2-.4.3-.7.3z" fill="#4F57AA"/><path d="M12 23.4c-.3 0-.5-.1-.7-.3-.4-.4-.4-1 0-1.4l5.4-5.4c.4-.4 1-.4 1.4 0 .4.4.4 1 0 1.4l-5.4 5.4c-.2.2-.5.3-.7.3z" fill="#4F57AA"/><path d="M137.4 134.4c-.3 0-.5-.1-.7-.3l-5.4-5.4c-.4-.4-.4-1 0-1.4.4-.4 1-.4 1.4 0l5.4 5.4c.4.4.4 1 0 1.4-.2.2-.4.3-.7.3z" fill="#FB9F88"/><path d="M132 134.4c-.3 0-.5-.1-.7-.3-.4-.4-.4-1 0-1.4l5.4-5.4c.4-.4 1-.4 1.4 0 .4.4.4 1 0 1.4l-5.4 5.4c-.2.2-.5.3-.7.3z" fill="#FB9F88"/><path d="M114 27.492A4.496 4.496 0 00109.51 23H71.49A4.48 4.48 0 0067 27.492V31.6h47v-4.107z" fill="#E6EFFF"/><path d="M114 31.6H67v72.774h47V31.599z" fill="#573856"/><path d="M67 104.374v5.134A4.496 4.496 0 0071.49 114h38.046a4.496 4.496 0 004.49-4.492v-5.134H67z" fill="#E6EFFF"/><path d="M90.5 113.23a4.02 4.02 0 01-3.49-2.028 4.038 4.038 0 010-4.03 4.02 4.02 0 013.49-2.028c1.437 0 2.77.77 3.49 2.028a4.038 4.038 0 010 4.03 4.02 4.02 0 01-3.49 2.028zm0-7.419a3.352 3.352 0 00-2.925 1.694 3.466 3.466 0 000 3.389 3.352 3.352 0 002.925 1.694 3.352 3.352 0 002.925-1.694 3.466 3.466 0 000-3.389 3.352 3.352 0 00-2.925-1.694zm3.848-77.985h-7.696a.515.515 0 01-.513-.513c0-.283.23-.514.513-.514h7.696a.515.515 0 010 1.027zm3.232.59a1.103 1.103 0 100-2.207 1.103 1.103 0 000 2.207z" fill="#1A2943"/><path d="M140.151 114.301c6.158 0 11.15-4.992 11.15-11.15 0-6.159-4.992-11.151-11.15-11.151C133.992 92 129 96.992 129 103.151c0 6.158 4.992 11.15 11.151 11.15z" fill="#FB9F88"/><path d="M144.902 108.928h-9.503a.853.853 0 01-.864-.864v-7.019c0-.486.378-.864.864-.864h9.503c.486 0 .864.378.864.864v7.046c-.027.459-.405.837-.864.837zm-8.639-1.701h7.775v-5.345h-7.775v5.345z" fill="#fff"/><path d="M143.903 101.882a.853.853 0 01-.864-.864v-2.592a.755.755 0 00-.756-.756h-4.292a.755.755 0 00-.756.756v2.592a.853.853 0 01-.864.864.853.853 0 01-.864-.864v-2.592a2.477 2.477 0 012.484-2.484h4.292a2.477 2.477 0 012.484 2.484v2.592a.853.853 0 01-.864.864zm-2.888 1.944a.853.853 0 00-.864-.864.853.853 0 00-.864.864c0 .378.216.674.54.809l-.54 1.35h1.728l-.54-1.35a.897.897 0 00.54-.809z" fill="#fff"/><path d="M87.154 54.162c-.412-1.556-2.031-2.476-3.587-2.063L33.162 65.748c-1.556.412-2.476 2.03-2.063 3.586l.444 1.683 56.056-15.173-.445-1.682z" fill="#FDCD5C"/><path d="M87.61 55.863l-56.04 15.17 1.708 6.311 56.041-15.17-1.708-6.311z" fill="#1A2943"/><path d="M33.289 77.365l5.554 20.473c.413 1.556 2.032 2.476 3.587 2.063l50.406-13.648c1.555-.413 2.476-2.032 2.063-3.587l-5.555-20.474L33.29 77.365z" fill="#FDCD5C"/><path d="M52.651 89.554l-8.634 2.349c-1.047.285-2.126-.35-2.412-1.397-.286-1.048.35-2.127 1.397-2.412l8.633-2.35c1.048-.285 2.127.35 2.413 1.397.254 1.048-.35 2.159-1.397 2.413z" fill="#E6EFFF"/><path d="M80.322 84.143a3.968 3.968 0 10-2.073-7.66 3.968 3.968 0 002.073 7.66z" fill="#FF6B6B"/><path d="M86.07 82.592a3.968 3.968 0 10-2.074-7.66 3.968 3.968 0 002.074 7.66z" fill="#E6EFFF"/><path d="M128.942 39H104.36c-.745 0-1.36.615-1.36 1.36v13.894c0 .745.615 1.36 1.36 1.36h24.582c.745 0 1.361-.615 1.361-1.36V40.36c.032-.745-.583-1.36-1.361-1.36z" fill="#008AA9"/><path d="M122.821 52.182a5.182 5.182 0 100-10.364 5.182 5.182 0 000 10.364z" fill="#fff"/><path d="M123.534 47.291a1.724 1.724 0 001.004-1.554c0-.94-.778-1.717-1.717-1.717-.939 0-1.716.777-1.716 1.717 0 .68.421 1.295 1.004 1.554-1.199.324-2.106 1.425-2.106 2.72h5.636a2.79 2.79 0 00-2.105-2.72z" fill="#008AA9"/><path d="M110.449 43.372h-4.048a.512.512 0 01-.519-.518c0-.291.227-.518.519-.518h4.048c.292 0 .518.227.518.518a.511.511 0 01-.518.518zm4.243 0h-1.587a.511.511 0 01-.518-.518c0-.291.226-.518.518-.518h1.587c.291 0 .518.227.518.518a.512.512 0 01-.518.518zm-4.049.908h4.049c.291 0 .518.226.518.517a.512.512 0 01-.518.519h-4.049a.512.512 0 01-.518-.519c.033-.291.259-.518.518-.518zm-4.242 0h1.587c.291 0 .518.226.518.517a.512.512 0 01-.518.519h-1.587a.512.512 0 01-.519-.519c0-.291.26-.518.519-.518zm4.242 6.185h4.049c.291 0 .518.227.518.518a.512.512 0 01-.518.519h-4.049a.512.512 0 01-.518-.519c.033-.291.259-.518.518-.518zm-4.242 0h1.587c.291 0 .518.227.518.518a.512.512 0 01-.518.519h-1.587a.512.512 0 01-.519-.519c0-.291.26-.518.519-.518z" fill="#fff"/><path d="M46.59 39.91c6.302-3.364 8.683-11.199 5.32-17.5-3.364-6.302-11.199-8.683-17.5-5.32-6.302 3.364-8.683 11.199-5.32 17.5 3.364 6.302 11.199 8.683 17.5 5.32z" fill="#FBA927"/><path d="M45.087 37.093c4.745-2.533 6.539-8.434 4.006-13.18-2.533-4.745-8.434-6.54-13.18-4.006-4.745 2.533-6.539 8.434-4.006 13.18 2.533 4.745 8.434 6.539 13.18 4.006z" fill="#FDCD5C"/><path d="M40.495 40.184a11.678 11.678 0 01-10.321-6.192c-3.032-5.677-.871-12.772 4.805-15.804 2.742-1.484 5.903-1.774 8.902-.87 3 .902 5.45 2.934 6.902 5.676 1.484 2.741 1.774 5.902.871 8.901-.903 3-2.903 5.45-5.676 6.902a11.536 11.536 0 01-5.483 1.387zm-9.773-6.483c2.87 5.387 9.58 7.419 14.965 4.548 2.613-1.387 4.516-3.709 5.387-6.547.87-2.839.58-5.806-.84-8.418-1.386-2.613-3.708-4.515-6.546-5.386-2.839-.871-5.806-.58-8.418.838-5.387 2.87-7.418 9.58-4.548 14.965z" fill="#FDCD5C"/><path d="M36.882 23.445l-.451-.806 1.419-.774.451.838c1.387-.419 2.516.194 3.322 1.71l.194.354-1.645.871-.258-.451c-.42-.807-.903-.936-1.451-.613-.549.29-.71.774-.29 1.548 1.225 2.29 4.676.58 6.385 3.741.807 1.516.678 2.806-.419 3.742l.42.806-1.42.774-.451-.839c-1.387.42-2.548-.225-3.355-1.709l-.419-.774 1.645-.87.452.87c.419.806.935.903 1.483.58.549-.29.742-.773.323-1.547-1.161-2.29-4.645-.581-6.322-3.742-.806-1.483-.71-2.774.387-3.709zm101.157 43.419c3.054 2.592 7.541 2.306 10.024-.638 2.482-2.944 2.019-7.431-1.034-10.023-3.054-2.592-7.541-2.306-10.024.638-2.482 2.944-2.019 7.431 1.034 10.023z" fill="#FBA927"/><path d="M139.149 65.548c2.299 1.952 5.679 1.737 7.549-.48 1.869-2.217 1.52-5.597-.779-7.549-2.3-1.952-5.679-1.737-7.549.48-1.869 2.217-1.521 5.597.779 7.549z" fill="#FDCD5C"/><path d="M136.627 63.791c-.884-2.191-.592-4.736.955-6.593 2.23-2.683 6.271-2.926 9-.545a6.79 6.79 0 012.317 4.485c.175 1.743-.335 3.417-1.415 4.706-1.073 1.306-2.609 2.07-4.315 2.178-1.707.108-3.367-.464-4.685-1.633a6.795 6.795 0 01-1.857-2.598zm1.217-6.362c-2.118 2.542-1.731 6.442.856 8.703 1.251 1.097 2.826 1.642 4.444 1.548a5.609 5.609 0 004.078-2.066c1.028-1.23 1.5-2.813 1.342-4.465a6.343 6.343 0 00-2.198-4.238c-2.586-2.26-6.405-2.025-8.522.518z" fill="#FDCD5C"/><path d="M144.316 58.643l.311-.394.693.606-.327.4c.508.658.439 1.375-.155 2.094l-.138.17-.791-.707.173-.224c.318-.377.28-.659 0-.889-.263-.236-.542-.229-.844.142-.895 1.09.704 2.598-.528 4.111-.594.72-1.273.897-1.979.493l-.318.377-.694-.606.327-.4c-.507-.658-.429-1.399.149-2.111l.301-.371.791.708-.344.406c-.318.378-.256.67.023.9.264.236.55.247.851-.124.91-1.056-.697-2.581.542-4.077.578-.713 1.25-.908 1.957-.504z" fill="#FBA927"/><path d="M7.5 77C3.333 77 0 73.646 0 69.547 0 65.354 3.333 62 7.5 62s7.5 3.354 7.5 7.547C14.907 73.646 11.574 77 7.5 77zm0-13.137c-3.148 0-5.648 2.516-5.648 5.684 0 3.167 2.5 5.683 5.648 5.683 3.148 0 5.648-2.516 5.648-5.683-.092-3.168-2.592-5.684-5.648-5.684z" fill="#FB9F88"/><path d="M171 78c-2.222 0-4-1.789-4-3.975A3.996 3.996 0 01171 70c2.222 0 4 1.789 4 4.025-.049 2.186-1.827 3.975-4 3.975zm0-7.006a3.002 3.002 0 00-3.012 3.03A3.002 3.002 0 00171 77.057a3.002 3.002 0 003.012-3.031c-.049-1.69-1.382-3.031-3.012-3.031z" fill="#4F57AA"/></svg>
